X:105
T:Lads of Laois (r)
B:NFID.170  ("untitled reel")
105lads_L
S:F&MB
L:1/8
M:C
R:reel
Q:360
K:Em
%A
G|EB, ~B,2 E2FE|DA, ~A,2 DEFD|GEED EFGA|B2e^c dBAF|
EB, ~B,2 E2FE|DA, ~A,2 DEFD|Eeed B^cdA|(3B^cd ec BFAF||
%B
EB, ~B,2 E2FE|DA, ~A,2 DEFD|GEED EFGA|Bbe^c dBAF|
E2 B,E GB,EG|D2A,D FA,DF|(3EEE BE dEBE|(3ABA FA BEE2||
%C
eB ~B2 egfe|defa gfed|Bdef gfge|fgaf gfed|
ebed BAFA|BE ~E2 BAFA|(3B^cd ef gefd|gbfb edBd||
%D
eB ~B2 egfe|defa gfed|Bdef g2ge|fgaf gfed|eB (3BBB GBFB|
Eeed egfa|gbgb fafa|egfd eGFD||

%%%

